X:104
T:Maid & the box - Parsons
C:Taken down from Jas. Parsons, 1888, by F.W.B.
%%VWML:SBG-1-1-532-0
F:http://www.vwml.org/record/SBG/1/1/532
Z:Original Sibleius Transcription by Martin and Shan Graebe
L:1/8
M:2/4
I:linebreak $
K:Eb
B | E E F G | c/ c/ B2 G | A G E E | E3 B | e e c e | d2 B B | F2 G=A | B3 B |$ e e c e | 
d d B B | e e d c | B3 B | E E FG | c/ c/ B2 A | G G E E | E3  |] 
T:Maid & the box - Stoneman
T:Taken down from Stoneman, Cully Hole in Chagford by F.W.B. Oct. 1890
L:1/4
M:4/4
I:linebreak $
K:F
F | F A A A | A c c c/A/ | G F F F | F2 F | c c c c |$ d3/2 B/ G G | G F F3/2 F/ | F2 |] 
"^sometimes he altered ending to" A | B G G G | F3  |] 
T:Maid & the box - Masters
T:Taken down from J. Masters by H. Fl. S.
L:1/8
M:2/4
I:linebreak $
K:C
G | cccc | cecc | dcde | f3 e | ggec | cAce | dcBA | G2 z G |$ ggec | cAce | dcBA | G3 G | FEGA | 
Gceg | edcB | c3  |] 
T:Maid & the box - from Exbourne
T:Taken down at Exbourne by F.W.B. July 1894
L:1/8
M:4/4
I:linebreak $
K:Eb
EF | G/>G/G/G/ B2 AF | FEEE E2 EG | B2 BB e2 BG | A>Bc>_d B2 B2 |$ B2 GB B2 e2 | A>AAc B2 BG | 
EFGA B2 AF | E>EEE E2  |] 



